src/assets/icon/inventory.svg

<svg width="100" height="100" viewBox="0 0 100 100" fill="none" xmlns="http://www.w3.org/2000/svg">
<g id="inventory" clip-path="url(#clip0_237_86175)">
<path id="Subtract" fill-rule="evenodd" clip-rule="evenodd" d="M24.2812 0.855822C22.9987 0.93686 22 2.00068 22 3.28576V9.99998H16.5759C13.0457 9.99998 10.264 13.0364 10.7801 16.5288C11.8696 23.9013 13.6521 31.0878 16.1772 38.2239C17.9607 43.2642 22.0343 47.0933 27.0154 49.036L28 49.42V43.1538H43V55.27L50 58L57 55.27V43.1538H72V49.42L72.9847 49.036C77.9658 47.0933 82.0394 43.2642 83.8228 38.2239C86.3479 31.0878 88.1305 23.9013 89.2199 16.5288C89.736 13.0364 86.9544 9.99998 83.4241 9.99998H78V4.14639C78 2.91972 77.0875 1.88461 75.8705 1.73082L64.914 0.346202C63.4597 0.16242 62.1739 1.29593 62.1739 2.76177V9.99998H50H37.8261V2.59345C37.8261 1.18836 36.6401 0.0749078 35.2378 0.163514L24.2812 0.855822ZM33 83C29.6863 83 27 85.6863 27 89V100.48H50H73V89C73 85.6863 70.3137 83 67 83H50H33ZM40 47H31V64.5L35.5 67L40 64.5V47ZM8.72537 22.4901C9.93923 28.6278 11.5839 34.6727 13.682 40.6891C14.5579 43.2007 15.9906 45.425 17.8194 47.2736C10.78 57.964 4.68925 71.0922 0.627042 81.4688C0.00150311 73.2067 -0.334895 63.6375 0.487091 55.9999C1.61465 45.5231 5.66204 31.8043 8.72537 22.4901ZM5.86393 99.1072C6.96309 99.6796 8.21337 99.9999 9.53056 99.9999L22 100V88C22 82.4771 26.4772 78 32 78H50H68C73.5228 78 78 82.4771 78 88V100L90.4694 99.9999C91.7867 99.9999 93.037 99.6795 94.1362 99.1072C94.3574 86.7461 91.6959 66.6532 81.1422 48.2469C79.5105 49.6637 77.6267 50.8113 75.5824 51.6392L72 53.0901V67.3846L64.5 70.8462L57 67.3846V59.1651L50.0003 62L50.0002 62V61.9999L43 59.1649V67.3846L35.5 70.8461L28 67.3846V53.0899L24.4181 51.6392C22.3737 50.8112 20.4898 49.6636 18.8581 48.2467C8.30427 66.6531 5.64273 86.7461 5.86393 99.1072ZM82.1809 47.2738C89.2201 57.9641 95.3108 71.092 99.373 81.4684C99.9985 73.2064 100.335 63.6374 99.5129 55.9999C98.3854 45.5235 94.3382 31.8052 91.2749 22.491C90.0611 28.6284 88.4165 34.673 86.3185 40.6891C85.4426 43.2008 84.0098 45.4251 82.1809 47.2738ZM69 47H60V64.5L64.5 67L69 64.5V47Z" fill="url(#paint0_linear_237_86175)"/>
</g>
<defs>
<linearGradient id="paint0_linear_237_86175" x1="50" y1="0.158569" x2="50" y2="100.48" gradientUnits="userSpaceOnUse">
<stop stop-color="#AB750F"/>
<stop offset="0.516" stop-color="#D8A956"/>
<stop offset="1" stop-color="#AB750F"/>
</linearGradient>
<clipPath id="clip0_237_86175">
<rect width="100" height="100" fill="white"/>
</clipPath>
</defs>
</svg>

<svg xmlns="http://www.w3.org/2000/svg" width="100" height="100" fill="none" xmlns:v="https://vecta.io/nano"><g clip-path="url(#B)"><path fill-rule="evenodd" d="M24.281.856C22.999.937 22 2.001 22 3.286V10h-5.424c-3.53 0-6.312 3.036-5.796 6.529a115.15 115.15 0 0 0 5.397 21.695c1.784 5.04 5.857 8.869 10.838 10.812l.985.384v-6.266h15V55.27L50 58l7-2.73V43.154h15v6.266l.985-.384c4.981-1.943 9.055-5.772 10.838-10.812 2.525-7.136 4.308-14.323 5.397-21.695.516-3.492-2.265-6.529-5.796-6.529H78V4.146c0-1.227-.912-2.262-2.129-2.416L64.914.346c-1.454-.184-2.74.95-2.74 2.416V10H50 37.826V2.593c0-1.405-1.186-2.519-2.588-2.43L24.281.856zM33 83a6 6 0 0 0-6 6v11.48h23 23V89a6 6 0 0 0-6-6H50 33zm7-36h-9v17.5l4.5 2.5 4.5-2.5V47zM8.725 22.49c1.214 6.138 2.859 12.183 4.957 18.199.876 2.512 2.309 4.736 4.137 6.584C10.78 57.964 4.689 71.092.627 81.469.002 73.207-.335 63.638.487 56c1.128-10.477 5.175-24.196 8.238-33.51zM5.864 99.107c1.099.572 2.349.893 3.667.893H22V88c0-5.523 4.477-10 10-10h18 18c5.523 0 10 4.477 10 10v12h12.469c1.317 0 2.568-.32 3.667-.893.221-12.361-2.44-32.454-12.994-50.86-1.632 1.417-3.516 2.564-5.56 3.392L72 53.09v14.295l-7.5 3.462-7.5-3.462v-8.22L50 62h0 0l-7-2.835v8.22l-7.5 3.462-7.5-3.462V53.09l-3.582-1.451c-2.044-.828-3.928-1.976-5.56-3.393C8.304 66.653 5.643 86.746 5.864 99.107zm76.317-51.833c7.039 10.69 13.13 23.818 17.192 34.195.626-8.262.962-17.831.14-25.469-1.127-10.476-5.175-24.195-8.238-33.509a134.15 134.15 0 0 1-4.956 18.198c-.876 2.512-2.309 4.736-4.138 6.585zM69 47h-9v17.5l4.5 2.5 4.5-2.5V47z" fill="url(#A)"/></g><defs><linearGradient id="A" x1="50" y1=".159" x2="50" y2="100.48" gradientUnits="userSpaceOnUse"><stop stop-color="#ab750f"/><stop offset=".516" stop-color="#d8a956"/><stop offset="1" stop-color="#ab750f"/></linearGradient><clipPath id="B"><path fill="#fff" d="M0 0h100v100H0z"/></clipPath></defs></svg>
